X: 24532
T: Lucy's Dream
R: reel
M: 4/4
K: Fmajor
|:"F"CFFA "C"G2 AB|"F"cfec "C"BG E2|"Gm"GABG "C"cdcB|"F"A2 "Bb"GF "C"EG C2|
"F"CFFA "C"G2AB|"F"cfec "C"BGAB|"C"cdeg fecB|1 "F"Ac"C"BG "F"F4:|2 "F"Ac"C"BG "F"F2 AB||
|:"F"c3 f fgag|fgfd "C"egcd|"Eb"_e3 d efgf|"C"ecfg fecB|
"F"AFFE F2"C"GB|"F"Acfd "C"efgf|"C"e2 fd ecBG|1 "F"Ac"C"BG "F"F2 AB:|2 "F"Ac"C"BG "F"F4||

